X:144
T:F\^ete du Village
S:http://lesters-tune-a-day.blogspot.co.uk/2013/07/tune-332-fete-du-village.html 2015
M:4/4
L:1/8
K:G
|:\
"G"d3c B2AB | "D7"c2B2 A4 | "G"B2G2 "Em"F2G2 | "A7"AGFE "D7"D2Bc |\
"G"d3c "Em"B2AB | "Am"c2B2 "D7"A4 | "G"B2d2 "D7"cBAF | "G"G4 G4 :|
|:\
"G"DGBG "D"DFAF | "G"DGBG "D"DFAF | "G"G2d2 "Em"c2B2 | "A7"AGAB "D7"A4 |\
"G"DGBG "D"DFAF | "G"DGBG "D"DFAF | "G"D2d2 "D7"cBAF | "G"G4 G4 :|
